lib/flags/s/GW.svg

<svg xmlns="http://www.w3.org/2000/svg" fill="none" viewBox="0 0 16 12"><mask id="GW_svg__a" width="16" height="12" x="0" y="0" mask-type="alpha" maskUnits="userSpaceOnUse"><path fill="#fff" d="M0 0H16V12H0z"/></mask><g fill-rule="evenodd" clip-rule="evenodd" mask="url(#GW_svg__a)"><path fill="#FBCD17" d="M8 0H16V6H8V0Z"/><path fill="#0B9E7A" d="M8 6H16V12H8V6Z"/><path fill="#E11C1B" d="M0 0H8V12H0V0Z"/><path fill="#1D1D1D" d="M4.46533 7.30314L2.72251 8.51199L3.27941 6.44152L2 5.1189L3.73239 5.04739L4.46533 3L5.19827 5.04739H6.92771L5.65125 6.44152L6.29052 8.38979L4.46533 7.30314Z"/></g></svg>

<svg xmlns="http://www.w3.org/2000/svg" fill="none" viewBox="0 0 16 12"><mask id="GW_svg__a" width="16" height="12" x="0" y="0" maskUnits="userSpaceOnUse"><path fill="#fff" d="M0 0h16v12H0z"/></mask><g fill-rule="evenodd" clip-rule="evenodd" mask="url(#GW_svg__a)"><path fill="#FBCD17" d="M8 0h8v6H8V0z"/><path fill="#0B9E7A" d="M8 6h8v6H8V6z"/><path fill="#E11C1B" d="M0 0h8v12H0V0z"/><path fill="#1D1D1D" d="M4.465 7.303L2.723 8.512l.556-2.07L2 5.119l1.732-.072L4.465 3l.733 2.047h1.73L5.65 6.442l.64 1.948-1.826-1.087z"/></g></svg>
